static/assets/images/networks/moonriver.svg

<svg xmlns="http://www.w3.org/2000/svg" fill="none" viewBox="0 0 512 512"><path fill="#000" d="M256 512c141.385 0 256-114.615 256-256S397.385 0 256 0 0 114.615 0 256s114.615 256 256 256"/><path fill="#F2B705" d="M253.913 86.016a138.82 138.82 0 0 0-98.156 40.655 138.8 138.8 0 0 0-40.657 98.15c.003 8.769.825 17.519 2.458 26.135l17.934-12.265c31.528-21.623 82.661-21.623 114.189 0l29.04 19.899c28.415 19.466 74.448 19.466 102.838 0l8.366-5.728a138.89 138.89 0 0 0-76.419-153.311 138.9 138.9 0 0 0-59.526-13.463z"/><path fill="#53CBC8" d="M331.924 308.208a100 100 0 0 1-55.973-15.991l-28.994-19.869a100.32 100.32 0 0 0-104.877 0l-18.746 12.832a8.147 8.147 0 0 1-11.318-2.118 8.14 8.14 0 0 1-1.285-6.097 8.15 8.15 0 0 1 3.403-5.22l18.741-12.833a116.64 116.64 0 0 1 123.287 0l28.993 19.87a89.6 89.6 0 0 0 93.527 0l11.008-7.528a8.2 8.2 0 0 1 2.921-1.249 8.15 8.15 0 0 1 8.397 3.367 8.14 8.14 0 0 1-2.118 11.317l-11.004 7.533a99.94 99.94 0 0 1-55.962 15.986"/><path fill="#53CBC8" d="M193.918 366.498v-78.42a31 31 0 0 1 .21-4.942 8.83 8.83 0 0 1 8.785-7.839 8.55 8.55 0 0 1 8.29 7.839c.333 2.722.429 5.469.286 8.208v156.379a9.2 9.2 0 0 1-2.507 6.636 9.2 9.2 0 0 1-6.483 2.88 9 9 0 0 1-8.103-6.349 9 9 0 0 1-.34-3.611v-52.127zM177.426 327.025v38.972c0 6.643-3.578 11.084-8.602 10.926a9.994 9.994 0 0 1-6.736-3.651 9.98 9.98 0 0 1-2.157-7.352v-77.919c0-6.827 3.977-11.432 9.149-11.166s8.264 4.395 8.289 11.212c.082 12.996.057 25.987.057 38.978M228.063 326.973v-27.397c0-6.352 3.368-10.456 8.392-10.456a9.4 9.4 0 0 1 6.648 3.206 9.44 9.44 0 0 1 2.296 7.015q.285 27.974 0 55.919a8.96 8.96 0 0 1-5.196 9.319 9 9 0 0 1-3.697.794c-5.147-.051-8.438-3.95-8.494-10.456v-27.969zM125.95 332.692v-27.397c0-6.347 3.373-10.456 8.392-10.456a9.43 9.43 0 0 1 6.648 3.206 9.41 9.41 0 0 1 2.296 7.015q.255 27.975 0 55.918a8.97 8.97 0 0 1-5.199 9.314 9 9 0 0 1-3.694.8c-5.111-.051-8.443-3.951-8.499-10.456v-27.97zM270.605 309.352a8.61 8.61 0 0 1 8.601 8.607v14.896a8.601 8.601 0 0 1-14.685 6.082 8.6 8.6 0 0 1-2.523-6.082v-14.896a8.607 8.607 0 0 1 8.607-8.607M304.694 322.4a8.604 8.604 0 0 1 8.601 8.606v83.566a8.6 8.6 0 0 1-8.601 8.6 8.593 8.593 0 0 1-8.602-8.6v-83.566a8.6 8.6 0 0 1 2.518-6.085 8.595 8.595 0 0 1 6.084-2.521M338.568 325.639a8.605 8.605 0 0 1 8.606 8.601v71.036a8.6 8.6 0 0 1-2.523 6.08 8.605 8.605 0 0 1-14.685-6.08V334.24a8.6 8.6 0 0 1 8.602-8.601M372.871 317.54a8.6 8.6 0 0 1 8.601 8.6v30.633a8.6 8.6 0 0 1-8.601 8.6 8.6 8.6 0 0 1-8.602-8.6V326.14a8.6 8.6 0 0 1 8.602-8.6"/></svg>

<svg width="512" height="512" viewBox="0 0 512 512" fill="none" xmlns="http://www.w3.org/2000/svg">
<path d="M256 512C397.385 512 512 397.385 512 256C512 114.615 397.385 0 256 0C114.615 0 0 114.615 0 256C0 397.385 114.615 512 256 512Z" fill="black"/>
<path d="M253.913 86.016C217.098 86.016 181.79 100.64 155.757 126.671C129.725 152.702 115.1 188.007 115.1 224.821C115.103 233.59 115.925 242.34 117.558 250.956L135.492 238.691C167.02 217.068 218.153 217.068 249.681 238.691L278.721 258.59C307.136 278.056 353.169 278.056 381.559 258.59L389.925 252.862C394.059 232.687 393.654 211.846 388.741 191.847C383.827 171.847 374.528 153.191 361.516 137.228C348.504 121.266 332.105 108.396 313.506 99.5508C294.907 90.7059 274.575 86.1073 253.98 86.0876L253.913 86.016Z" fill="#F2B705"/>
<path d="M331.924 308.208C312.093 308.547 292.609 302.981 275.951 292.217L246.957 272.348C231.177 262.673 213.028 257.553 194.519 257.553C176.009 257.553 157.86 262.673 142.08 272.348L123.334 285.18C122.451 285.784 121.459 286.208 120.413 286.429C119.366 286.649 118.287 286.662 117.236 286.465C116.185 286.268 115.183 285.866 114.287 285.282C113.392 284.699 112.62 283.944 112.016 283.062C111.412 282.18 110.987 281.187 110.767 280.141C110.546 279.095 110.534 278.015 110.731 276.965C110.928 275.914 111.329 274.912 111.913 274.016C112.497 273.121 113.252 272.349 114.134 271.745L132.875 258.912C151.373 247.396 172.728 241.291 194.519 241.291C216.309 241.291 237.664 247.396 256.162 258.912L285.155 278.782C299.232 287.395 315.415 291.954 331.918 291.954C348.422 291.954 364.605 287.395 378.682 278.782L389.69 271.254C390.573 270.65 391.565 270.226 392.611 270.005C393.658 269.785 394.737 269.773 395.788 269.969C396.839 270.166 397.841 270.568 398.737 271.152C399.632 271.736 400.404 272.49 401.008 273.372C401.612 274.255 402.037 275.247 402.257 276.293C402.478 277.339 402.49 278.419 402.293 279.47C402.096 280.52 401.695 281.522 401.111 282.418C400.527 283.314 399.772 284.085 398.89 284.689L387.886 292.222C371.231 302.985 351.751 308.549 331.924 308.208Z" fill="#53CBC8"/>
<path d="M193.918 366.498V288.078C193.857 286.428 193.927 284.775 194.128 283.136C194.372 280.978 195.402 278.985 197.023 277.539C198.644 276.092 200.741 275.294 202.913 275.297C205.018 275.354 207.027 276.185 208.557 277.632C210.086 279.078 211.029 281.038 211.203 283.136C211.536 285.858 211.632 288.605 211.489 291.344V447.723C211.531 448.94 211.331 450.153 210.901 451.292C210.471 452.431 209.819 453.474 208.982 454.359C208.146 455.244 207.142 455.955 206.029 456.449C204.917 456.943 203.717 457.212 202.499 457.239C201.279 457.171 200.086 456.855 198.992 456.311C197.898 455.767 196.926 455.006 196.136 454.074C195.346 453.142 194.754 452.059 194.396 450.89C194.039 449.722 193.923 448.493 194.056 447.279V395.152L193.918 366.498Z" fill="#53CBC8"/>
<path d="M177.426 327.025V365.997C177.426 372.64 173.848 377.081 168.824 376.923C167.516 376.789 166.248 376.397 165.092 375.77C163.936 375.143 162.915 374.294 162.088 373.272C161.262 372.249 160.646 371.073 160.276 369.811C159.905 368.55 159.788 367.227 159.931 365.92V288.001C159.931 281.174 163.908 276.569 169.08 276.835C174.252 277.101 177.344 281.23 177.369 288.047C177.451 301.043 177.426 314.034 177.426 327.025Z" fill="#53CBC8"/>
<path d="M228.063 326.973V299.576C228.063 293.224 231.431 289.12 236.455 289.12C237.722 289.179 238.964 289.494 240.106 290.045C241.249 290.596 242.268 291.372 243.103 292.326C243.938 293.281 244.572 294.394 244.967 295.6C245.361 296.805 245.508 298.078 245.399 299.341C245.589 317.991 245.589 336.63 245.399 355.26C245.563 356.524 245.456 357.808 245.084 359.028C244.712 360.247 244.084 361.373 243.243 362.33C242.401 363.287 241.364 364.054 240.203 364.579C239.041 365.104 237.781 365.374 236.506 365.373C231.359 365.322 228.068 361.423 228.012 354.917V326.948L228.063 326.973Z" fill="#53CBC8"/>
<path d="M125.95 332.692V305.295C125.95 298.948 129.323 294.839 134.342 294.839C135.609 294.898 136.851 295.213 137.993 295.763C139.136 296.314 140.155 297.09 140.99 298.045C141.826 298.999 142.459 300.113 142.854 301.318C143.248 302.523 143.395 303.796 143.286 305.06C143.456 323.709 143.456 342.349 143.286 360.978C143.448 362.242 143.339 363.525 142.966 364.744C142.593 365.962 141.965 367.087 141.124 368.043C140.283 369 139.247 369.767 138.087 370.292C136.926 370.818 135.667 371.09 134.393 371.092C129.282 371.041 125.95 367.141 125.894 360.636V332.666L125.95 332.692Z" fill="#53CBC8"/>
<path d="M270.605 309.352C272.886 309.354 275.074 310.261 276.687 311.875C278.3 313.489 279.206 315.677 279.206 317.959V332.855C279.206 335.136 278.3 337.324 276.687 338.937C275.074 340.55 272.886 341.456 270.605 341.456C268.323 341.456 266.135 340.55 264.521 338.937C262.907 337.325 262 335.137 261.998 332.855V317.959C261.998 315.676 262.905 313.487 264.519 311.873C266.133 310.259 268.322 309.352 270.605 309.352Z" fill="#53CBC8"/>
<path d="M304.694 322.4C306.975 322.401 309.163 323.308 310.776 324.922C312.389 326.536 313.295 328.724 313.295 331.006V414.572C313.295 416.853 312.389 419.04 310.776 420.653C309.163 422.266 306.975 423.172 304.694 423.172C303.564 423.173 302.445 422.951 301.401 422.519C300.357 422.087 299.409 421.453 298.61 420.655C297.811 419.856 297.178 418.907 296.746 417.864C296.314 416.82 296.092 415.701 296.092 414.572V331.006C296.092 329.876 296.314 328.757 296.746 327.713C297.178 326.668 297.811 325.72 298.61 324.921C299.408 324.121 300.357 323.487 301.401 323.055C302.445 322.622 303.564 322.4 304.694 322.4Z" fill="#53CBC8"/>
<path d="M338.568 325.639C340.849 325.639 343.038 326.546 344.651 328.159C346.265 329.771 347.173 331.959 347.174 334.24V405.276C347.173 406.405 346.95 407.523 346.517 408.567C346.085 409.61 345.45 410.558 344.651 411.356C343.852 412.154 342.904 412.787 341.86 413.219C340.816 413.65 339.697 413.872 338.568 413.871C337.438 413.872 336.32 413.65 335.276 413.219C334.233 412.787 333.285 412.154 332.486 411.355C331.687 410.557 331.053 409.61 330.621 408.566C330.189 407.523 329.966 406.405 329.966 405.276V334.24C329.966 331.959 330.872 329.772 332.486 328.159C334.099 326.546 336.286 325.639 338.568 325.639Z" fill="#53CBC8"/>
<path d="M372.871 317.54C375.152 317.54 377.34 318.446 378.953 320.059C380.566 321.672 381.472 323.859 381.472 326.14V356.773C381.472 359.054 380.566 361.241 378.953 362.854C377.34 364.467 375.152 365.373 372.871 365.373C370.59 365.373 368.402 364.467 366.789 362.854C365.176 361.241 364.269 359.054 364.269 356.773V326.14C364.269 323.859 365.176 321.672 366.789 320.059C368.402 318.446 370.59 317.54 372.871 317.54Z" fill="#53CBC8"/>
</svg>
